assets/flexBox.svg

<svg xmlns="http://www.w3.org/2000/svg" viewBox="0 0 512 512"><linearGradient id="a" gradientUnits="userSpaceOnUse" x1="0" y1="258" x2="512" y2="258" gradientTransform="matrix(1 0 0 -1 0 514)"><stop offset="0" stop-color="#00f2fe"/><stop offset=".021" stop-color="#03effe"/><stop offset=".293" stop-color="#24d2fe"/><stop offset=".554" stop-color="#3cbdfe"/><stop offset=".796" stop-color="#4ab0fe"/><stop offset="1" stop-color="#4facfe"/></linearGradient><path d="M216 158H20c-11.046 0-20-8.954-20-20s8.954-20 20-20h196c11.046 0 20 8.954 20 20s-8.954 20-20 20zm20-138c0-11.046-8.954-20-20-20H20C8.954 0 0 8.954 0 20s8.954 20 20 20h196c11.046 0 20-8.954 20-20zm0 472c0-11.046-8.954-20-20-20H20c-11.046 0-20 8.954-20 20s8.954 20 20 20h196c11.046 0 20-8.954 20-20zm0-118c0-11.046-8.954-20-20-20H20c-11.046 0-20 8.954-20 20s8.954 20 20 20h196c11.046 0 20-8.954 20-20zm0-118c0-11.046-8.954-20-20-20H20c-11.046 0-20 8.954-20 20s8.954 20 20 20h196c11.046 0 20-8.954 20-20zm276-118c0-11.046-8.954-20-20-20H296c-11.046 0-20 8.954-20 20s8.954 20 20 20h196c11.046 0 20-8.954 20-20zm0-118c0-11.046-8.954-20-20-20H296c-11.046 0-20 8.954-20 20s8.954 20 20 20h196c11.046 0 20-8.954 20-20zm0 354c0-11.046-8.954-20-20-20H296c-11.046 0-20 8.954-20 20s8.954 20 20 20h196c11.046 0 20-8.954 20-20zm0-118c0-11.046-8.954-20-20-20H296c-11.046 0-20 8.954-20 20s8.954 20 20 20h196c11.046 0 20-8.954 20-20z" fill="url(#a)"/></svg>

<?xml version="1.0" encoding="iso-8859-1"?>
<!-- Generator: Adobe Illustrator 19.0.0, SVG Export Plug-In . SVG Version: 6.00 Build 0)  -->
<svg version="1.1" id="Capa_1" xmlns="http://www.w3.org/2000/svg" xmlns:xlink="http://www.w3.org/1999/xlink" x="0px" y="0px"
	 viewBox="0 0 512 512" style="enable-background:new 0 0 512 512;" xml:space="preserve">
<linearGradient id="SVGID_1_" gradientUnits="userSpaceOnUse" x1="0" y1="258" x2="512" y2="258" gradientTransform="matrix(1 0 0 -1 0 514)">
	<stop  offset="0" style="stop-color:#00F2FE"/>
	<stop  offset="0.021" style="stop-color:#03EFFE"/>
	<stop  offset="0.293" style="stop-color:#24D2FE"/>
	<stop  offset="0.554" style="stop-color:#3CBDFE"/>
	<stop  offset="0.796" style="stop-color:#4AB0FE"/>
	<stop  offset="1" style="stop-color:#4FACFE"/>
</linearGradient>
<path style="fill:url(#SVGID_1_);" d="M216,158H20c-11.046,0-20-8.954-20-20s8.954-20,20-20h196c11.046,0,20,8.954,20,20
	S227.046,158,216,158z M236,20c0-11.046-8.954-20-20-20H20C8.954,0,0,8.954,0,20s8.954,20,20,20h196C227.046,40,236,31.046,236,20z
	 M236,492c0-11.046-8.954-20-20-20H20c-11.046,0-20,8.954-20,20s8.954,20,20,20h196C227.046,512,236,503.046,236,492z M236,374
	c0-11.046-8.954-20-20-20H20c-11.046,0-20,8.954-20,20s8.954,20,20,20h196C227.046,394,236,385.046,236,374z M236,256
	c0-11.046-8.954-20-20-20H20c-11.046,0-20,8.954-20,20c0,11.046,8.954,20,20,20h196C227.046,276,236,267.046,236,256z M512,138
	c0-11.046-8.954-20-20-20H296c-11.046,0-20,8.954-20,20s8.954,20,20,20h196C503.046,158,512,149.046,512,138z M512,20
	c0-11.046-8.954-20-20-20H296c-11.046,0-20,8.954-20,20s8.954,20,20,20h196C503.046,40,512,31.046,512,20z M512,374
	c0-11.046-8.954-20-20-20H296c-11.046,0-20,8.954-20,20s8.954,20,20,20h196C503.046,394,512,385.046,512,374z M512,256
	c0-11.046-8.954-20-20-20H296c-11.046,0-20,8.954-20,20c0,11.046,8.954,20,20,20h196C503.046,276,512,267.046,512,256z"/>
<g>
</g>
<g>
</g>
<g>
</g>
<g>
</g>
<g>
</g>
<g>
</g>
<g>
</g>
<g>
</g>
<g>
</g>
<g>
</g>
<g>
</g>
<g>
</g>
<g>
</g>
<g>
</g>
<g>
</g>
</svg>
